icons/animal_rat_fill.svg

<svg width="48" height="48" viewBox="0 0 48 48" fill="none" xmlns="http://www.w3.org/2000/svg">
<path fill-rule="evenodd" clip-rule="evenodd" d="M20.452 22.7885C18.8777 24.3628 14.4251 26.263 12.8509 24.6888C12.1359 23.9738 12.1376 22.6652 12.5 21.3021L12.4203 21.3203C7.49313 22.4495 4 26.8337 4 31.8886C4 32.0882 4.16181 32.25 4.36141 32.25H44V29.4961C44 25.9079 42.5733 22.653 40.2563 20.2676L37.4707 20.2787C35.4692 20.5019 34.0209 22.011 32.9719 23.713C32.4591 24.545 32.0757 25.3688 31.7903 26.0081C31.7552 26.0868 31.7205 26.1652 31.6866 26.2417L31.6862 26.2426C31.5891 26.462 31.4987 26.666 31.4243 26.8194C31.3753 26.9204 31.3115 27.0457 31.238 27.156C31.2031 27.2083 31.1381 27.3003 31.0424 27.3896C30.9733 27.4541 30.7215 27.6782 30.3226 27.6782H25.3871C23.8726 27.6782 22.5476 28.7439 22.1336 30.2496V32.2496H20V31.2496C20 28.2118 22.3735 25.6782 25.3871 25.6782H29.7484C29.7767 25.615 29.8076 25.5452 29.8413 25.4692L29.8426 25.4663C29.8792 25.3835 29.9196 25.2925 29.964 25.193C30.2589 24.5322 30.6854 23.6111 31.2693 22.6637C32.381 20.8599 34.1985 18.7437 37 18.3235L37.861 18.3161C35.8075 17.0079 33.3692 16.25 30.7539 16.25C27.4661 16.25 24.2143 16.862 21.1628 18.0471C21.9726 19.5709 21.7356 21.5049 20.452 22.7885ZM12 27.25C12.5523 27.25 13 26.8023 13 26.25C13 25.6977 12.5523 25.25 12 25.25C11.4477 25.25 11 25.6977 11 26.25C11 26.8023 11.4477 27.25 12 27.25Z" fill="black"/>
<path fill-rule="evenodd" clip-rule="evenodd" d="M34.7738 16.871C33.506 16.4676 32.1554 16.25 30.7539 16.25C28.142 16.25 25.5528 16.6362 23.0687 17.3892C22.4259 17.5841 21.7901 17.8035 21.1628 18.0471C21.3123 18.3284 21.4261 18.6237 21.5043 18.9263C21.8494 20.2628 21.4987 21.7419 20.452 22.7885C19.3402 23.9004 16.7926 25.1748 14.8373 25.273C14.0241 25.3139 13.3133 25.1512 12.8509 24.6888C12.5313 24.3693 12.355 23.9311 12.2899 23.4226C12.2832 23.3699 12.2777 23.3164 12.2733 23.2623C12.2294 22.7193 12.3021 22.1056 12.4558 21.4753C12.4699 21.4177 12.4846 21.3599 12.5 21.3021L12.4203 21.3203C11.686 21.4886 10.9836 21.7292 10.3199 22.0335C6.52958 23.7711 4 27.587 4 31.8886C4 32.0882 4.16181 32.25 4.36141 32.25H44V29.4961C44 25.9217 42.5843 22.6781 40.283 20.2952C40.2741 20.286 40.2652 20.2768 40.2563 20.2676L37.4707 20.2787C37.3697 20.2899 37.2702 20.3045 37.1721 20.3221C36.4067 20.4598 35.7257 20.7879 35.1197 21.2398C34.2626 21.8791 33.5554 22.7662 32.9719 23.713C32.4591 24.545 32.0757 25.3688 31.7903 26.0081C31.7892 26.0106 31.7881 26.013 31.787 26.0155C31.753 26.0917 31.7194 26.1676 31.6866 26.2417L31.6862 26.2426C31.6543 26.3147 31.6231 26.3851 31.5929 26.4526C31.5866 26.4668 31.5804 26.4808 31.5742 26.4947C31.5197 26.6162 31.4691 26.727 31.4243 26.8194C31.3753 26.9204 31.3115 27.0457 31.238 27.156C31.2031 27.2083 31.1381 27.3003 31.0424 27.3896C30.9733 27.4541 30.7215 27.6782 30.3226 27.6782H25.3871C23.8726 27.6782 22.5476 28.7439 22.1336 30.2496V32.2496H20V31.2496C20 30.9091 20.0298 30.575 20.087 30.25C20.087 30.2501 20.087 30.2499 20.087 30.25C20.1009 30.171 20.1165 30.0922 20.1336 30.0144C20.1554 29.9152 20.1798 29.817 20.2066 29.7198C20.4051 29.0012 20.74 28.3391 21.182 27.7677C22.1629 26.4996 23.6712 25.6782 25.3871 25.6782H29.7484C29.7584 25.6558 29.7688 25.6326 29.7794 25.6087C29.7989 25.5648 29.8195 25.5183 29.8413 25.4692L29.8426 25.4663C29.8771 25.3883 29.915 25.3028 29.9564 25.2099C29.9589 25.2043 29.9615 25.1986 29.964 25.193C30.2589 24.5322 30.6854 23.6111 31.2693 22.6637C32.0712 21.3624 33.239 19.9012 34.8764 19.029C35.5115 18.6906 36.2174 18.4409 37 18.3235L37.861 18.3161C37.8407 18.3031 37.8203 18.2902 37.7999 18.2774C37.5378 18.1124 37.2696 17.9564 36.9956 17.8098C36.9693 17.7957 36.943 17.7818 36.9167 17.7679C36.2353 17.4091 35.5188 17.108 34.7738 16.871ZM32.3164 18.3574C31.806 18.2866 31.2844 18.25 30.7539 18.25C28.3222 18.25 25.9118 18.6121 23.6005 19.318C23.7798 21.0601 23.2029 22.866 21.8662 24.2027C20.7953 25.2736 18.9799 26.2822 17.2528 26.8268C16.4912 27.0669 15.6525 27.2477 14.8202 27.2754C14.4013 28.4273 13.2967 29.25 12 29.25C10.3431 29.25 9 27.9069 9 26.25C9 25.8167 9.09188 25.4048 9.25721 25.0328C7.65889 26.336 6.54224 28.1776 6.15239 30.25H18.0649C18.5372 26.6302 21.5371 23.6782 25.3871 23.6782H28.4581C28.7417 23.0783 29.1088 22.3572 29.5666 21.6143C30.1886 20.6052 31.0856 19.3815 32.3164 18.3574ZM12.7209 26.943C12.8937 26.7633 13 26.5191 13 26.25C13 25.7864 12.6845 25.3964 12.2565 25.2832C12.1746 25.2615 12.0887 25.25 12 25.25C11.6274 25.25 11.3025 25.4537 11.1304 25.7559C11.0474 25.9016 11 26.0703 11 26.25C11 26.8023 11.4477 27.25 12 27.25C12.2832 27.25 12.5389 27.1323 12.7209 26.943ZM24.3163 30.25H42V29.4961C42 26.7444 41.0139 24.2264 39.3726 22.2711L37.6021 22.2782C36.574 22.4326 35.5997 23.2612 34.6745 24.7624C34.2329 25.4789 33.8925 26.2053 33.6167 26.8233C33.5838 26.8969 33.5512 26.9706 33.5181 27.0453M24.3163 30.25C24.589 29.88 24.9972 29.6782 25.3871 29.6782H30.3226C31.499 29.6782 32.23 29.0169 32.407 28.8518C32.6655 28.6105 32.8297 28.374 32.9021 28.2655C33.0551 28.036 33.1675 27.8084 33.2239 27.6921M33.496 27.0952L33.4975 27.0921L33.5153 27.0516C33.5158 27.0504 33.5163 27.0493 33.5168 27.0482C33.5172 27.0473 33.5177 27.0461 33.5181 27.0453M33.2239 27.6921C33.3105 27.5135 33.4086 27.2924 33.496 27.0952Z" fill="black"/>
<path fill-rule="evenodd" clip-rule="evenodd" d="M16.05 23.0119C17.3364 22.6063 18.5344 21.8777 19.0378 21.3743C19.8309 20.5811 19.8309 19.2951 19.0378 18.5019C18.2446 17.7087 16.9586 17.7087 16.1654 18.5019C15.662 19.0053 14.9334 20.2033 14.5278 21.4897C14.3309 22.1141 14.2512 22.635 14.2615 23.0022C14.2648 23.1197 14.2761 23.2003 14.2872 23.2525C14.3394 23.2636 14.42 23.2749 14.5374 23.2782C14.9047 23.2885 15.4256 23.2088 16.05 23.0119ZM12.8509 24.6888C14.4251 26.263 18.8777 24.3628 20.452 22.7885C22.0262 21.2143 22.0262 18.662 20.452 17.0877C18.8777 15.5135 16.3254 15.5135 14.7512 17.0877C13.1769 18.662 11.2766 23.1146 12.8509 24.6888Z" fill="black"/>
<path fill-rule="evenodd" clip-rule="evenodd" d="M32 11C32 10.4477 32.4477 10 33 10C39.0508 10 44 14.7873 44 20.7465C44 22.4304 43.6028 24.026 42.895 25.4461L41.105 24.5539C41.6785 23.4034 42 22.1125 42 20.7465C42 15.94 37.9949 12 33 12C32.4477 12 32 11.5523 32 11Z" fill="black"/>
</svg>

<svg
  xmlns="http://www.w3.org/2000/svg"
  width="24"
  height="24"
  viewBox="0 0 24 24"
  fill="none"
  stroke="currentColor"
  stroke-width="2"
  stroke-linecap="round"
  stroke-linejoin="round"
>
  <path
    fill-rule="evenodd"
    d="M20.452 22.789c-1.574 1.574-6.027 3.474-7.601 1.9-.715-.715-.713-2.024-.351-3.387l-.08.018A10.84 10.84 0 0 0 4 31.89c0 .2.162.361.361.361H44v-2.754c0-3.588-1.427-6.843-3.744-9.228l-2.785.01c-2.002.224-3.45 1.733-4.5 3.435-.512.832-.895 1.656-1.18 2.295l-.104.234c-.098.22-.188.424-.263.577a3 3 0 0 1-.186.337 1.3 1.3 0 0 1-.196.234c-.069.064-.32.288-.72.288h-4.935c-1.514 0-2.84 1.066-3.253 2.572v2H20v-1c0-3.038 2.374-5.572 5.387-5.572h4.361l.093-.209.002-.003.121-.273c.295-.66.721-1.582 1.305-2.53 1.112-1.803 2.93-3.92 5.731-4.34l.861-.007a13.2 13.2 0 0 0-7.107-2.066c-3.288 0-6.54.612-9.591 1.797a4.03 4.03 0 0 1-.711 4.741M12 27.25a1 1 0 1 0 0-2 1 1 0 0 0 0 2"
    clip-rule="evenodd"
  />
  <path
    fill-rule="evenodd"
    d="M34.774 16.871a13.2 13.2 0 0 0-4.02-.621 26.5 26.5 0 0 0-9.591 1.797 4.03 4.03 0 0 1-.71 4.741c-1.113 1.112-3.66 2.387-5.616 2.485-.813.04-1.524-.122-1.986-.584-.32-.32-.496-.758-.561-1.266l-.017-.16c-.044-.544.03-1.157.183-1.788l.044-.173-.08.018A10.844 10.844 0 0 0 4 31.888c0 .2.162.362.361.362H44v-2.754c0-3.574-1.416-6.818-3.717-9.2l-.027-.028-2.785.01q-.151.018-.299.044c-.765.138-1.446.466-2.052.918-.857.64-1.565 1.526-2.148 2.473-.513.832-.896 1.656-1.182 2.295q0 .004-.003.008l-.1.226-.094.21-.019.043c-.054.121-.105.232-.15.324a3 3 0 0 1-.186.337 1.3 1.3 0 0 1-.196.234c-.069.064-.32.288-.72.288h-4.935c-1.514 0-2.84 1.066-3.253 2.572v2H20v-1q0-.511.087-1a6 6 0 0 1 .12-.53 5.7 5.7 0 0 1 .975-1.952c.98-1.268 2.49-2.09 4.205-2.09h4.361l.031-.07.062-.139.002-.003.113-.256.008-.017c.295-.66.721-1.582 1.305-2.53.802-1.3 1.97-2.762 3.607-3.634A6.6 6.6 0 0 1 37 18.323l.861-.007-.061-.039q-.393-.247-.804-.467l-.08-.042a13 13 0 0 0-2.142-.897m-2.458 1.486q-.766-.106-1.562-.107a24.5 24.5 0 0 0-7.154 1.068 6.02 6.02 0 0 1-1.734 4.885c-1.07 1.07-2.886 2.08-4.613 2.624-.762.24-1.6.42-2.433.448a3.001 3.001 0 1 1-5.563-2.242 8.85 8.85 0 0 0-3.105 5.217h11.913c.472-3.62 3.472-6.572 7.322-6.572h3.071c.284-.6.65-1.32 1.109-2.064.622-1.009 1.519-2.233 2.75-3.257m-19.595 8.586a1 1 0 1 0-1.443-1.386 1 1 0 0 0 1.443 1.386m11.595 3.307H42v-.754c0-2.752-.986-5.27-2.627-7.225l-1.77.007q-1.542.233-2.928 2.484c-.442.717-.782 1.443-1.058 2.061l-.099.222m-9.202 3.205c.273-.37.681-.572 1.071-.572h4.936a3.06 3.06 0 0 0 2.084-.826c.259-.242.423-.478.495-.587.153-.229.265-.457.322-.573m.272-.597.002-.003.017-.04.002-.004.001-.003m-.294.647c.087-.178.185-.4.272-.597Z"
    clip-rule="evenodd"
  />
  <path
    fill-rule="evenodd"
    d="M16.05 23.012c1.286-.406 2.484-1.134 2.988-1.638a2.031 2.031 0 0 0-2.873-2.872c-.503.503-1.232 1.701-1.637 2.988-.197.624-.277 1.145-.267 1.512.004.118.015.198.026.25q.076.02.25.026c.368.01.889-.07 1.513-.266m-3.2 1.677c1.575 1.574 6.028-.326 7.602-1.9a4.031 4.031 0 0 0-5.7-5.701c-1.575 1.574-3.475 6.027-1.901 7.6"
    clip-rule="evenodd"
  />
  <path
    fill-rule="evenodd"
    d="M32 11a1 1 0 0 1 1-1c6.05 0 11 4.787 11 10.747 0 1.683-.397 3.279-1.105 4.7l-1.79-.893A8.5 8.5 0 0 0 42 20.747C42 15.94 37.995 12 33 12a1 1 0 0 1-1-1"
    clip-rule="evenodd"
  />
</svg>
